device_themes/vtm_theme_poi/icons/restaurant.svg

<svg height="580" width="580" xmlns="http://www.w3.org/2000/svg"><path d="m66.275 1.768c-41.335 0-64.571 21.371-64.571 65.036v450.123c0 40.844 20.894 62.229 62.192 62.229h452.024c41.307 0 62.229-20.316 62.229-62.229v-450.123c0-42.601-20.922-65.036-63.522-65.036-.003 0-448.494-.143-448.352 0z" fill="none"/><g fill="#734a08"><path d="m203.725 338.602c37.643-17.466 64.864-67.996 64.864-127.642 0-74.115-61.834-155.247-93.849-155.247-32.014 0-93.85 81.132-93.85 155.247 0 59.646 27.223 110.176 64.865 127.642l-7.792 176.545h73.553z"/><path d="m430.231 368.602c37.642-17.466 51.389-39.928 51.389-99.574l-9.781-202.814c0-3.875-3.142-7.017-7.018-7.017h-4.607c-3.873 0-7.016 3.141-7.016 7.017l3.26 202.814h-20.259l-5.132-204.789c0-3.875-3.142-7.017-7.018-7.017h-5.995c-3.874 0-7.016 3.142-7.016 7.017l2.775 204.789h-25.137l2.775-204.789c0-3.875-3.142-7.017-7.017-7.017h-5.996c-3.875 0-7.016 3.142-7.016 7.017l-5.132 204.789h-19.835l3.26-202.789c0-3.875-3.142-7.017-7.017-7.017h-4.606c-3.875 0-7.018 3.142-7.018 7.017l-10.174 202.789c0 59.646 13.715 82.108 51.356 99.574l-7.791 146.545h73.554z"/></g></svg>

<?xml version="1.0" encoding="UTF-8" standalone="no"?>
<!-- Created with Inkscape (http://www.inkscape.org/) -->
<svg
   xmlns:dc="http://purl.org/dc/elements/1.1/"
   xmlns:cc="http://creativecommons.org/ns#"
   xmlns:rdf="http://www.w3.org/1999/02/22-rdf-syntax-ns#"
   xmlns:svg="http://www.w3.org/2000/svg"
   xmlns="http://www.w3.org/2000/svg"
   xmlns:sodipodi="http://sodipodi.sourceforge.net/DTD/sodipodi-0.dtd"
   xmlns:inkscape="http://www.inkscape.org/namespaces/inkscape"
   version="1.0"
   width="580"
   height="580"
   id="svg2">
  <metadata
     id="metadata2975">
    <rdf:RDF>
      <cc:Work
         rdf:about="">
        <dc:format>image/svg+xml</dc:format>
        <dc:type
           rdf:resource="http://purl.org/dc/dcmitype/StillImage" />
			  <cc:license
           rdf:resource="http://web.resource.org/cc/PublicDomain" />
        <dc:language>en</dc:language>
      </cc:Work>
    </rdf:RDF>
  </metadata>
  <defs
     id="defs4" />
  <g
     id="layer1">
    <g
       id="g2119">
			<g
   id="g1327">
				<path
   d="M 66.275,1.768 C 24.94,1.768 1.704,23.139 1.704,66.804 L 1.704,516.927 C 1.704,557.771 22.598,579.156 63.896,579.156 L 515.92,579.156 C 557.227,579.156 578.149,558.84 578.149,516.927 L 578.149,66.804 C 578.149,24.203 557.227,1.768 514.627,1.768 C 514.624,1.768 66.133,1.625 66.275,1.768 z "
   style="fill:none;stroke:none;stroke-width:3.40799999"
   id="path1329" />

			</g>

			<path
   d="M 203.725,338.602 C 241.368,321.136 268.589,270.606 268.589,210.96 C 268.589,136.845 206.755,55.713 174.74,55.713 C 142.726,55.713 80.89,136.845 80.89,210.96 C 80.89,270.606 108.113,321.136 145.755,338.602 L 137.963,515.147 L 211.516,515.147 L 203.725,338.602 z "
   style="fill:#734A08"
   id="path2110" />

			<path
   d="M 430.231,368.602 C 467.873,351.136 481.62,328.674 481.62,269.028 L 471.839,66.214 C 471.839,62.339 468.697,59.197 464.821,59.197 L 460.214,59.197 C 456.341,59.197 453.198,62.338 453.198,66.214 L 456.458,269.028 L 436.199,269.028 L 431.067,64.239 C 431.067,60.364 427.925,57.222 424.049,57.222 L 418.054,57.222 C 414.18,57.222 411.038,60.364 411.038,64.239 L 413.813,269.028 L 388.676,269.028 L 391.451,64.239 C 391.451,60.364 388.309,57.222 384.434,57.222 L 378.438,57.222 C 374.563,57.222 371.422,60.364 371.422,64.239 L 366.29,269.028 L 346.455,269.028 L 349.715,66.239 C 349.715,62.364 346.573,59.222 342.698,59.222 L 338.092,59.222 C 334.217,59.222 331.074,62.364 331.074,66.239 L 320.9,269.028 C 320.9,328.674 334.615,351.136 372.256,368.602 L 364.465,515.147 L 438.019,515.147 L 430.231,368.602 z "
   style="fill:#734A08"
   id="path2112" />

		</g>
  </g>
</svg>
